X:5905
T:Gan Ainm
R:reel
S:
H:
N:
D:Milltown 1999 
Z:Adrian Scahill
M:4/4
L:1/8
K:A
FBB2 cfec|Bcec BAFE|FBBA ceaf|gfeg effe|\
fafe Bcec|B2FB Bcde|a4 effa|1 eAcA B3A:|2 eAcA B3c||\
dBB2 aBgB|dBB2 ceAc|dBcd egaf|gfeg effe|\
fafe Bcec|B2FB Bcde|a4 effa|eAcA B3A:||


